co/file_pdf.svg

<svg viewBox="0 0 24 24" fill="none" xmlns="http://www.w3.org/2000/svg" height="1em" width="1em">
  <path d="M18 22H6C4.89543 22 4 21.1046 4 20V3.99999C4 2.89542 4.89543 1.99999 6 1.99999H13C13.009 1.99882 13.018 1.99882 13.027 1.99999H13.033C13.0424 2.00294 13.0522 2.00495 13.062 2.00599C13.1502 2.01164 13.2373 2.02878 13.321 2.05699H13.336H13.351H13.363C13.3815 2.06991 13.3988 2.08429 13.415 2.09999C13.5239 2.14841 13.6232 2.21617 13.708 2.29999L19.708 8.29999C19.7918 8.38477 19.8596 8.48404 19.908 8.59299C19.917 8.61499 19.924 8.63599 19.931 8.65899L19.941 8.68699C19.9689 8.77038 19.9854 8.85717 19.99 8.94499C19.9909 8.95495 19.9932 8.96472 19.997 8.97399V8.97999C19.9986 8.98654 19.9996 8.99324 20 8.99999V20C20 20.5304 19.7893 21.0391 19.4142 21.4142C19.0391 21.7893 18.5304 22 18 22ZM14.424 14V19H15.364V16.96H16.824V16.122H15.364V14.841H17V14H14.424ZM10.724 14V19H11.93C12.4359 19.0249 12.9258 18.8189 13.262 18.44C13.6069 17.9999 13.7797 17.4492 13.748 16.891V16.081C13.7712 15.5286 13.5936 14.9865 13.248 14.555C12.9226 14.1846 12.4476 13.9807 11.955 14H10.724ZM7 14V19H7.94V17.241H8.566C8.98402 17.2641 9.39232 17.1094 9.69 16.815C9.97408 16.4974 10.1214 16.0806 10.1 15.655C10.1186 15.2192 9.97135 14.7926 9.688 14.461C9.40772 14.1502 9.00309 13.9811 8.585 14H7ZM13 3.99999V8.99999H18L13 3.99999ZM11.946 18.162H11.664V14.841H12.006C12.2489 14.8267 12.4824 14.9366 12.626 15.133C12.7726 15.4363 12.8354 15.7732 12.808 16.109V16.978C12.83 17.2977 12.7606 17.6171 12.608 17.899C12.4441 18.0903 12.1965 18.1887 11.946 18.162ZM8.585 16.4H7.939V14.841H8.594C8.75752 14.8428 8.90863 14.9285 8.994 15.068C9.10222 15.2466 9.15447 15.4534 9.144 15.662C9.15654 15.8565 9.1049 16.0497 8.997 16.212C8.89754 16.3368 8.74447 16.4067 8.585 16.4Z" fill="black"/>
</svg>

<svg viewBox="0 0 24 24" fill="none" xmlns="http://www.w3.org/2000/svg" height="1em" width="1em">
  <path d="M18 22H6a2 2 0 0 1-2-2V4a2 2 0 0 1 2-2h7a.104.104 0 0 1 .027 0h.006a.15.15 0 0 0 .029.006c.088.006.175.023.259.051h.042a.421.421 0 0 1 .052.043.988.988 0 0 1 .293.2l6 6a.987.987 0 0 1 .2.293.735.735 0 0 1 .023.066l.01.028c.028.083.044.17.049.258a.1.1 0 0 0 .007.029v.006A.112.112 0 0 1 20 9v11a2 2 0 0 1-2 2Zm-3.576-8v5h.94v-2.04h1.46v-.838h-1.46v-1.281H17V14h-2.576Zm-3.7 0v5h1.206a1.67 1.67 0 0 0 1.332-.56 2.3 2.3 0 0 0 .486-1.549v-.81a2.287 2.287 0 0 0-.5-1.526c-.325-.37-.8-.574-1.293-.555h-1.231ZM7 14v5h.94v-1.759h.626c.418.023.826-.132 1.124-.426a1.62 1.62 0 0 0 .41-1.16 1.725 1.725 0 0 0-.412-1.194A1.4 1.4 0 0 0 8.585 14H7Zm6-10v5h5l-5-5Zm-1.054 14.162h-.282v-3.321h.342a.716.716 0 0 1 .62.292c.147.303.21.64.182.976v.869c.022.32-.047.64-.2.921a.765.765 0 0 1-.662.263ZM8.585 16.4h-.646v-1.559h.655a.475.475 0 0 1 .4.227c.108.179.16.385.15.594a.89.89 0 0 1-.147.55.5.5 0 0 1-.412.188Z" fill="#000"/>
</svg>
